X:1688
M:4/4
L:1/8
K:G
| e2 c2 e2 e2 | d>B G>B d7/d | c>B A>G F>D E>F | G>A _B>=B c>^c d>^d |
 e2 g>f e2 ^d2 | d>^c =c>^c d7/d | c>B A>G F>D E>F | G2 G2 G2 Gz |
(:musicend:)
(:music:)
